dist/images/logo.svg

<svg width="272" height="49" viewBox="0 0 272 49" fill="none" xmlns="http://www.w3.org/2000/svg">
<line x1="214" y1="14.5" x2="250" y2="14.5" stroke="#B73232" stroke-width="7"/>
<line x1="211" y1="36" x2="258" y2="36" stroke="#B73282" stroke-width="7"/>
<line x1="223" y1="25.5" x2="268" y2="25.5" stroke="#5CADBF" stroke-width="7"/>
<path d="M38.72 11L33.2 39H25.88L28.76 24.24L19.44 36.24H15.96L10.88 24.24L7.92 39H0.64L6.24 11H12.68L19.24 27.2L31.96 11H38.72ZM58.9641 33.56H47.0441L43.8041 39H35.4441L53.4041 11H61.2041L67.9641 39H60.0841L58.9641 33.56ZM57.7641 27.72L55.8841 18.64L50.5241 27.72H57.7641ZM88.9294 23.88L98.3294 39H89.4894L83.0494 28.92L79.4094 32.2L78.0494 39H70.2494L75.8494 11H83.6494L81.3694 22.44L94.0094 11H103.329L88.9294 23.88ZM112.488 17.12L111.568 21.84H124.008L122.848 27.76H110.368L109.368 32.88H124.048L122.768 39H100.328L105.928 11H127.848L126.608 17.12H112.488ZM132.803 11H140.723L135.123 39H127.203L132.803 11ZM151.037 17.28H142.437L143.717 11H168.797L167.517 17.28H158.957L154.597 39H146.677L151.037 17.28ZM176.51 39.56C174.19 39.56 171.99 39.28 169.91 38.72C167.83 38.16 166.136 37.44 164.83 36.56L167.95 30.64C169.363 31.5467 170.87 32.24 172.47 32.72C174.07 33.1733 175.67 33.4 177.27 33.4C178.79 33.4 179.963 33.1867 180.79 32.76C181.643 32.3067 182.07 31.6933 182.07 30.92C182.07 30.2533 181.683 29.7333 180.91 29.36C180.163 28.9867 178.99 28.5867 177.39 28.16C175.576 27.68 174.07 27.2 172.87 26.72C171.67 26.2133 170.63 25.4533 169.75 24.44C168.896 23.4267 168.47 22.0933 168.47 20.44C168.47 18.44 169.016 16.6933 170.11 15.2C171.203 13.68 172.763 12.5067 174.79 11.68C176.816 10.8533 179.19 10.44 181.91 10.44C183.91 10.44 185.776 10.6533 187.51 11.08C189.243 11.48 190.736 12.0667 191.99 12.84L189.11 18.72C188.016 18.0267 186.803 17.5067 185.47 17.16C184.163 16.7867 182.816 16.6 181.43 16.6C179.856 16.6 178.616 16.8533 177.71 17.36C176.83 17.8667 176.39 18.52 176.39 19.32C176.39 20.0133 176.776 20.5467 177.55 20.92C178.323 21.2933 179.523 21.6933 181.15 22.12C182.963 22.5733 184.456 23.04 185.63 23.52C186.83 24 187.856 24.7333 188.71 25.72C189.563 26.7067 189.99 28 189.99 29.6C189.99 31.5733 189.43 33.32 188.31 34.84C187.216 36.3333 185.643 37.4933 183.59 38.32C181.563 39.1467 179.203 39.56 176.51 39.56ZM207.088 39.56C204.261 39.56 201.795 39.04 199.688 38C197.608 36.96 195.995 35.5067 194.848 33.64C193.728 31.7733 193.168 29.64 193.168 27.24C193.168 24.04 193.901 21.16 195.368 18.6C196.861 16.04 198.928 14.04 201.568 12.6C204.235 11.16 207.261 10.44 210.648 10.44C213.475 10.44 215.928 10.96 218.008 12C220.115 13.04 221.728 14.4933 222.848 16.36C223.995 18.2267 224.568 20.36 224.568 22.76C224.568 25.96 223.821 28.84 222.328 31.4C220.861 33.96 218.795 35.96 216.128 37.4C213.488 38.84 210.475 39.56 207.088 39.56ZM207.768 33C209.528 33 211.075 32.56 212.408 31.68C213.741 30.8 214.768 29.6267 215.488 28.16C216.208 26.6667 216.568 25.0267 216.568 23.24C216.568 21.3467 215.981 19.84 214.808 18.72C213.661 17.5733 212.048 17 209.968 17C208.208 17 206.661 17.44 205.328 18.32C203.995 19.2 202.968 20.3867 202.248 21.88C201.528 23.3467 201.168 24.9733 201.168 26.76C201.168 28.6533 201.741 30.1733 202.888 31.32C204.061 32.44 205.688 33 207.768 33Z" fill="black"/>
<circle cx="268.5" cy="25.5" r="3.5" fill="#D9BC57"/>
<path d="M261 36C261 37.933 259.433 39.5 257.5 39.5C255.567 39.5 254 37.933 254 36C254 34.067 255.567 32.5 257.5 32.5C259.433 32.5 261 34.067 261 36Z" fill="#59D957"/>
<path d="M253.5 14.4495C253.5 16.3825 251.933 17.9495 250 17.9495C248.067 17.9495 246.5 16.3825 246.5 14.4495C246.5 12.5165 248.067 10.9495 250 10.9495C251.933 10.9495 253.5 12.5165 253.5 14.4495Z" fill="#EB6C6C"/>
</svg>

<svg width="272" height="49" fill="none" xmlns="http://www.w3.org/2000/svg"><path stroke="#B73232" stroke-width="7" d="M214 14.5h36"/><path stroke="#B73282" stroke-width="7" d="M211 36h47"/><path stroke="#5CADBF" stroke-width="7" d="M223 25.5h45"/><path d="M38.72 11L33.2 39h-7.32l2.88-14.76-9.32 12h-3.48l-5.08-12L7.92 39H.64l5.6-28h6.44l6.56 16.2L31.96 11h6.76zm20.244 22.56h-11.92L43.804 39h-8.36l17.96-28h7.8l6.76 28h-7.88l-1.12-5.44zm-1.2-5.84l-1.88-9.08-5.36 9.08h7.24zm31.165-3.84L98.33 39h-8.84l-6.44-10.08-3.64 3.28-1.36 6.8h-7.8l5.6-28h7.8l-2.28 11.44L94.01 11h9.32l-14.4 12.88zm23.559-6.76l-.92 4.72h12.44l-1.16 5.92h-12.48l-1 5.12h14.68l-1.28 6.12h-22.44l5.6-28h21.92l-1.24 6.12h-14.12zM132.803 11h7.92l-5.6 28h-7.92l5.6-28zm18.234 6.28h-8.6l1.28-6.28h25.08l-1.28 6.28h-8.56L154.597 39h-7.92l4.36-21.72zm25.473 22.28c-2.32 0-4.52-.28-6.6-.84-2.08-.56-3.774-1.28-5.08-2.16l3.12-5.92c1.413.907 2.92 1.6 4.52 2.08 1.6.453 3.2.68 4.8.68 1.52 0 2.693-.213 3.52-.64.853-.453 1.28-1.067 1.28-1.84 0-.667-.387-1.187-1.16-1.56-.747-.373-1.92-.773-3.52-1.2-1.814-.48-3.32-.96-4.52-1.44a8.438 8.438 0 01-3.12-2.28c-.854-1.013-1.28-2.347-1.28-4 0-2 .546-3.747 1.64-5.24 1.093-1.52 2.653-2.693 4.68-3.52 2.026-.827 4.4-1.24 7.12-1.24 2 0 3.866.213 5.6.64 1.733.4 3.226.987 4.48 1.76l-2.88 5.88a12.74 12.74 0 00-3.64-1.56 14.64 14.64 0 00-4.04-.56c-1.574 0-2.814.253-3.72.76-.88.507-1.32 1.16-1.32 1.96 0 .693.386 1.227 1.16 1.6.773.373 1.973.773 3.6 1.2 1.813.453 3.306.92 4.48 1.4a7.9 7.9 0 013.08 2.2c.853.987 1.28 2.28 1.28 3.88 0 1.973-.56 3.72-1.68 5.24-1.094 1.493-2.667 2.653-4.72 3.48-2.027.827-4.387 1.24-7.08 1.24zm30.578 0c-2.827 0-5.293-.52-7.4-1.56-2.08-1.04-3.693-2.493-4.84-4.36-1.12-1.867-1.68-4-1.68-6.4 0-3.2.733-6.08 2.2-8.64 1.493-2.56 3.56-4.56 6.2-6 2.667-1.44 5.693-2.16 9.08-2.16 2.827 0 5.28.52 7.36 1.56 2.107 1.04 3.72 2.493 4.84 4.36 1.147 1.867 1.72 4 1.72 6.4 0 3.2-.747 6.08-2.24 8.64-1.467 2.56-3.533 4.56-6.2 6-2.64 1.44-5.653 2.16-9.04 2.16zm.68-6.56c1.76 0 3.307-.44 4.64-1.32a8.761 8.761 0 003.08-3.52c.72-1.493 1.08-3.133 1.08-4.92 0-1.893-.587-3.4-1.76-4.52-1.147-1.147-2.76-1.72-4.84-1.72-1.76 0-3.307.44-4.64 1.32-1.333.88-2.36 2.067-3.08 3.56-.72 1.467-1.08 3.093-1.08 4.88 0 1.893.573 3.413 1.72 4.56 1.173 1.12 2.8 1.68 4.88 1.68z" fill="#000"/><circle cx="268.5" cy="25.5" r="3.5" fill="#D9BC57"/><path d="M261 36a3.5 3.5 0 11-7 0 3.5 3.5 0 017 0z" fill="#59D957"/><path d="M253.5 14.45a3.5 3.5 0 11-7 0 3.5 3.5 0 017 0z" fill="#EB6C6C"/></svg>
